!!!!SEGMENT: pl-sa--l-1643--070_anonim--duo-seraphim-clamabant.krn
!!!cenid: 16xx:1428
!!!COM: Anonim
!!!COM-rismid: pe30004985
!!!CDT:
!!!CNT:
!!!OTL: Duo seraphim clamabant
!!!PDT:
!!!AGN: Sacred
!!!SMS-siglum: PL-SA
!!!SMS-shelfmark: L 1643
!!!SMS-shelfwork: 070 W
!!!SMS-variant:
!!!SMS-altvar:
!!!NIFC-rismid: 1001063831
!!!URL-scan: http://repozytorium.nifc.pl/skany/pl-sa-nut--l1643
!!!ONB-nifc: UWAGA: 8 ksiąg. Primi chori: 1mus Cantus (x), C 2dus (116), C 3tius (x), Bassus (x); Secondi chori: Primus Cantus (x), C 2dus (23-24), Altus (x), Bassus (111-112). UWAGA: Nie dodawać pustych linii, chyba że w rękopisie pojawiają się dodatkowe oznaczenia dotyczące pełnej obsady (a 4, a 8 itp.)
**kern	**text	**kern	**text	**kern	**text
*part3	*part3	*part2	*part2	*part1	*part1
*staff3	*staff3	*staff2	*staff2	*staff1	*staff1
*I"Bassus Primi Chori.	*	*I"Cantus 3tius Primi Chori	*	*I"Cantus 2dus Primi Chori.	*
*I'Coro 2 B	*	*I'Coro 1 C 3	*	*I'Coro 1 C 2	*
*clefC3	*	*clefC1	*	*clefC1	*
*k[b-]	*	*k[b-]	*	*k[b-]	*
*F:	*	*F:	*	*F:	*
*M2/2	*	*M2/2	*	*M2/2	*
*met(C|)	*	*met(C|)	*	*met(C|)	*
=1	=1	=1	=1	=1	=1
00r	.	0r	.	1f/	Du-
=2-	=2-	=2-	=2-	=2-	=2-
.	.	.	.	1g\	-o
=3-	=3-	=3-	=3-	=3-	=3-
.	.	1r	.	2.a\	ſe-
.	.	.	.	4a\	-ra-
=4-	=4-	=4-	=4-	=4-	=4-
.	.	1f/	Du-	1a\	-phim,
=5-	=5-	=5-	=5-	=5-	=5-
00r	.	1g\	-o	0r	.
=6-	=6-	=6-	=6-	=6-	=6-
.	.	2.a\	ſe-	.	.
.	.	4a\	-ra-	.	.
=7-	=7-	=7-	=7-	=7-	=7-
.	.	2a\	-phim	2r	.
!	!	!	!	!	!
.	.	2r	.	2a\	cla-
=8-	=8-	=8-	=8-	=8-	=8-
.	.	1r	.	2.f/	-ma-
.	.	.	.	4g/	.
=9-	=9-	=9-	=9-	=9-	=9-
!	!	!	!	!LO:SIC:v:l:s=-bant	!
2r	.	2r	.	2a\	-bat
2f\	Cla-	2a\	cla-	2r	.
=10-	=10-	=10-	=10-	=10-	=10-
4B-/	-ma-	2.f/	-ma-	1r	.
4c/	.	.	.	.	.
4d\	.	.	.	.	.
!	!	!	!	!	!
4e\	.	4g/	.	.	.
=11-	=11-	=11-	=11-	=11-	=11-
!	!	!LO:SIC:v:l:s=-bant	!	!	!
2f\	-bant	2a\	-bat	2r	.
2r	.	2r	.	2a\	cla-
=12-	=12-	=12-	=12-	=12-	=12-
1r	.	1r	.	2.f/	-ma-
.	.	.	.	4g/	.
=13-	=13-	=13-	=13-	=13-	=13-
!	!	!	!	!LO:SIC:v:l:s=-bant	!
2r	.	2r	.	2a,<\	-bat-
2f\	Cla-	2a\	.	2a\	cla-
=14-	=14-	=14-	=14-	=14-	=14-
4B-/	-ma-	2.f/	.	1b-\	-ma-
4c/	.	.	.	.	.
4d\	.	.	.	.	.
4e\	.	4g/	.	.	.
=15-	=15-	=15-	=15-	=15-	=15-
!	!	!	!	!LO:SIC:v:l:s=-bant	!
1f\	-bant	1a\	.	1a\	-bat
=16-	=16-	=16-	=16-	=16-	=16-
*M3/2	*	*M3/2	*	*M3/2	*
1.r	.	1.r	.	2.b-\	al-
.	.	.	.	4a\	-ter
.	.	.	.	2b-\	ad
=17-	=17-	=17-	=17-	=17-	=17-
2.B-/	al-	2.dd\	Al-	2.b-\	al-
4f\	-ter	4a\	-ter	4cc\	-te-
2B-/	ad	2dd\	ad	2dd,<\	-rum,
=18-	=18-	=18-	=18-	=18-	=18-
2.B-/	al-	2.dd\	al-	2.b-\	al-
!	!	!	!	!LO:SIC:v:t=custos dd	!
4F/	-te-	4a\	-te-	4cc\	-ter
!	!	!	!	!LO:LB:g=original	!
2B-,</	-rum	2dd,<\	-rum	2dd\	ad
=19-	=19-	=19-	=19-	=19-	=19-
*	*	*	*ij	*	*
2.B-/	al-	2.dd\	Al-	2.b-\	al-
4f\	-ter	4a\	-ter	4a\	-te-
!LO:SIC:v:t=custos B-	!	!	!	!	!
2B-/	ad	2dd\	ad	2b-,<\	-rum
=20-	=20-	=20-	=20-	=20-	=20-
!LO:LB:g=original	!	!	!	!	!
2.B-/	al-	2.dd\	al-	2.b-\	al-
4F/	-te-	4a\	-te-	4cc\	-ter
!	!	!LO:SIC:v:t=custos dd	!	!	!
2B-,</	-rum	2dd\	-rum	2dd\	ad
*	*	*	*Xij	*	*
=21-	=21-	=21-	=21-	=21-	=21-
!	!	!LO:LB:g=original	!	!	!
2.d\	al-	2.dd\	al-	2.a\	al-
4a\	-ter	4cc\	-ter	4a\	-te-
2d\	ad	2dd\	ad	2a\	-rum
=22-	=22-	=22-	=22-	=22-	=22-
2.B-/	al-	2.b-\	al-	2.b-\	al-
4f\	-te-	4cc\	-te-	4a\	-ter
2B-/	-rum	2b-,<\	-rum	2b-\	ad
=23-	=23-	=23-	=23-	=23-	=23-
*	*	*	*ij	*	*
2.d\	al-	2.a\	al-	2.dd\	al-
!	!	!	!	!LO:TX:t=P:problem:# below	!
4A/	-ter	4a\	-ter	4cc#X\	-te-
2d\	ad	2a\	ad	2dd\	-rum
=24-	=24-	=24-	=24-	=24-	=24-
2.B-/	al-	2.b-\	al-	2.b-\	al-
4F/	-te-	4cc\	-te-	4a\	-te-
2B-/	-rum	2b-\	-rum	2b-\	-rum
*	*	*	*Xij	*	*
=25-	=25-	=25-	=25-	=25-	=25-
*M2/2	*	*M2/2	*	*M2/2	*
*met(C|)	*	*met(C|)	*	*met(C|)	*
2r	.	2r	.	2ccny\	san-
2F/	San-	2cc\	San-	2cc\	-ctus
=26-	=26-	=26-	=26-	=26-	=26-
1F/	-ctus	2cc\	-ctus	2r	.
*	*	*	*	*	*ij
.	.	2r	.	2cc\	san-
=27-	=27-	=27-	=27-	=27-	=27-
!	!	!	!	!LO:SIC:v:t=custos dd	!
*	*	*	*ij	*	*
2r	.	2b-\	San-	2dd\	-ctus
*	*	*	*	*	*Xij
!	!	!	!	!LO:LB:g=original	!
2B-/	San-	2b-\	-ctus	2r	.
*	*	*	*Xij	*	*
=28-	=28-	=28-	=28-	=28-	=28-
1B-/	-ctus	2r	.	2dd\	san-
.	.	2dd\	San-	2dd\	-ctus
=29-	=29-	=29-	=29-	=29-	=29-
!LO:SIC:v:t=custos f	!	!	!	!	!
2r	.	2dd,<\	-ctus	2r	.
*	*	*	*ij	*	*
!LO:LB:g=original	!	!	!	!	!
2f\	San-	2cc\	San-	2cc\	san-
=30-	=30-	=30-	=30-	=30-	=30-
1f\	-ctus	1a\	-ctus	1cc\	-ctus
*	*	*	*Xij	*	*
=31-	=31-	=31-	=31-	=31-	=31-
00r	.	00r	.	2.cc\	do-
.	.	.	.	4b-\	-mi-
=32-	=32-	=32-	=32-	=32-	=32-
.	.	.	.	1a\	-nus
=33-	=33-	=33-	=33-	=33-	=33-
.	.	.	.	2cc\	De-
.	.	.	.	2cc\	-us
=34-	=34-	=34-	=34-	=34-	=34-
.	.	.	.	2b-\	sab-
.	.	.	.	2g/	-ba-
=35-	=35-	=35-	=35-	=35-	=35-
2r	.	2r	.	2a\	-oth
2.B-/	Do-	2.b-\	Do-	2r	.
=36-	=36-	=36-	=36-	=36-	=36-
.	.	.	.	00r	.
4f\	-mi-	4cc\	-mi-	.	.
2g\	-nus	2dd\	-nus	.	.
=37-	=37-	=37-	=37-	=37-	=37-
2f\	De-	2a\	de-	.	.
2d\	-us	2a\	-us	.	.
=38-	=38-	=38-	=38-	=38-	=38-
2d\	Sab-	2a\	sab-	.	.
2A/	-ba-	2a\	-ba-	.	.
=39-	=39-	=39-	=39-	=39-	=39-
!	!	!	!	!	!
1d\	-oth	1a\	-oth	.	.
=40-	=40-	=40-	=40-	=40-	=40-
!	!	!LO:SIC:v:t=custos dd	!	!	!
1r	.	1r	.	2.dd\	Ple-
.	.	.	.	4cc\	.
=41-	=41-	=41-	=41-	=41-	=41-
!	!	!LO:LB:g=original	!	!LO:SIC:v:s=1b-	!
2.B-/	Ple-	2.dd\	Ple-	1a\	.
4c/	.	4cc\	.	.	.
=42-	=42-	=42-	=42-	=42-	=42-
1d\	.	0b-\	-na	1b-\	-na
=43-	=43-	=43-	=43-	=43-	=43-
1B-/	-na	.	.	2.dd\	ple-
.	.	.	.	4cc\	-na
=44-	=44-	=44-	=44-	=44-	=44-
!	!	!	!	!LO:SIC:v:s=1b-\,<	!
2.B-/	Ple-	2.dd\	ple-	1a\,<	est
4c/	.	4cc\	.	.	.
=45-	=45-	=45-	=45-	=45-	=45-
1d\	.	0b-\	-na	1.b-\	om-
=46-	=46-	=46-	=46-	=46-	=46-
2d,<\	-na	.	.	.	.
!	!	!	!	!LO:SIC:v:t=custos cc	!
2g\	eſt	.	.	2b-\	-nis
=47-	=47-	=47-	=47-	=47-	=47-
!	!	!	!	!LO:LB:g=original	!
1.c/	om-	1g\	eſt	1.cc\	om-
=48-	=48-	=48-	=48-	=48-	=48-
.	.	2g/	o-	.	.
!LO:SIC:v:t=custos B-	!	!	!	!	!
2f\	-nis	2a\	-mnis	2a\	-nis
=49-	=49-	=49-	=49-	=49-	=49-
!LO:LB:g=original	!	!	!	!	!
4B-/	ter-	1dd\	ter-	1b-\	ter-
4c/	.	.	.	.	.
4d\	.	.	.	.	.
4e\	.	.	.	.	.
=50-	=50-	=50-	=50-	=50-	=50-
1f\	-ra	1a\	-ra,	1a\	-ra
=51-	=51-	=51-	=51-	=51-	=51-
*M3/2	*	*M3/2	*	*M3/2	*
2.f\	glo-	2.a\	Glo-	1.r	.
4f\	-ri-	4a\	-ri-	.	.
2f\	-a	1a\	-a	.	.
=52-	=52-	=52-	=52-	=52-	=52-
1.r	.	.	.	2.b-\	glo-
.	.	1r	.	.	.
.	.	.	.	4b-\	-ri-
.	.	.	.	2b-\	-a
=53-	=53-	=53-	=53-	=53-	=53-
2.c/	glo-	2.cc\	glo-	1.r	.
4c/	-ri-	4cc\	-ri-	.	.
2c/	-a	2cc,<\	-a	.	.
=54-	=54-	=54-	=54-	=54-	=54-
2.f\	glo-	2.a\	glo-	2.cc\	glo-
4f\	-ri-	4a\	-ri-	4a\	-ri-
2f\	-a	2cc\	-a	2a\	-a
=55-	=55-	=55-	=55-	=55-	=55-
*M2/2	*	*M2/2	*	*M2/2	*
*met(C|)	*	*met(C|)	*	*met(C|)	*
1c\	tu-	1cc\	tu-	1g\	tu-
=56-	=56-	=56-	=56-	=56-	=56-
1f\	-a	1a\	-a	1a\	-a
=57-	=57-	=57-	=57-	=57-	=57-
1G/	Tres	1b-\	Tres	0r	.
=58-	=58-	=58-	=58-	=58-	=58-
1d\	sunt	1a\	sunt	.	.
=59-	=59-	=59-	=59-	=59-	=59-
00r	.	00r	.	1b-\	qui
=60-	=60-	=60-	=60-	=60-	=60-
.	.	.	.	2b-\	tes-
.	.	.	.	2a\	-ti-
=61-	=61-	=61-	=61-	=61-	=61-
.	.	.	.	2.g/	-mo-
.	.	.	.	4g/	-ni-
=62-	=62-	=62-	=62-	=62-	=62-
.	.	.	.	2g/	-um
.	.	.	.	2b-\	dant
=63-	=63-	=63-	=63-	=63-	=63-
00r	.	00r	.	2a\	in
!	!	!	!	!LO:SIC:v:t=custos a	!
.	.	.	.	2a\	cae-
=64-	=64-	=64-	=64-	=64-	=64-
!	!	!	!	!LO:LB:g=original	!
.	.	.	.	1a\	-lo
=65-	=65-	=65-	=65-	=65-	=65-
.	.	.	.	1.b-\	pa-
=66-	=66-	=66-	=66-	=66-	=66-
.	.	.	.	.	.
.	.	.	.	2a\	-ter
=67-	=67-	=67-	=67-	=67-	=67-
1g\	Ver-	1g\	Ver-	0r	.
=68-	=68-	=68-	=68-	=68-	=68-
1d\	-bum	1a\	-bum	.	.
=69-	=69-	=69-	=69-	=69-	=69-
!LO:SIC:v:t=custos B-	!	!	!	!	!
0r	.	0r	.	1.cc\	pa-
=70-	=70-	=70-	=70-	=70-	=70-
!	!	!	!	!	!
.	.	.	.	.	.
.	.	.	.	2cc\	-ter
=71-	=71-	=71-	=71-	=71-	=71-
*	*	*	*ij	*	*
!LO:LB:g=original	!	!	!	!	!
4B-/	Ver-	1b-\	Ver-	1r	.
4c/	.	.	.	.	.
4d\	.	.	.	.	.
4e\	.	.	.	.	.
=72-	=72-	=72-	=72-	=72-	=72-
!	!	!LO:SIC:v:t=custos a	!	!	!
2f\	-bum	2a\	-bum	2r	.
*	*	*	*Xij	*	*
!	!	!LO:PB:g=original	!	!	!
2r	.	2r	.	2b-\	et
=73-	=73-	=73-	=73-	=73-	=73-
0r	.	0r	.	2.b-\	spi-
.	.	.	.	4b-\	-ri-
=74-	=74-	=74-	=74-	=74-	=74-
.	.	.	.	2b-\	-tus
.	.	.	.	2.b-\	san-
=75-	=75-	=75-	=75-	=75-	=75-
1r	.	1r	.	.	.
.	.	.	.	8a\L	.
.	.	.	.	8g\J	.
.	.	.	.	2a\	.
=76-	=76-	=76-	=76-	=76-	=76-
2r	.	2r	.	2b-\	-cuts
2f\	et	2a\	et	2r	.
=77-	=77-	=77-	=77-	=77-	=77-
2.B-/	Spi-	2.b-\	spi-	00r	.
4B-/	-ri-	4b-\	-ri-	.	.
=78-	=78-	=78-	=78-	=78-	=78-
1c\	-tus	1g\	-tus	.	.
=79-	=79-	=79-	=79-	=79-	=79-
1G/	San-	1dd\	san-	.	.
=80-	=80-	=80-	=80-	=80-	=80-
2c/	-ctus	2cc\	-ctus	.	.
2f\	et	2a\	et	.	.
=81-	=81-	=81-	=81-	=81-	=81-
4B-/	hi	1b-\	hi	1r	.
4c/	.	.	.	.	.
4d\	.	.	.	.	.
4e\	.	.	.	.	.
=82-	=82-	=82-	=82-	=82-	=82-
2f\	tres	2a\	tres,	2r	.
2r	.	2r	.	2a\	v-
=83-	=83-	=83-	=83-	=83-	=83-
1r	.	1r	.	1a\	-num
=84-	=84-	=84-	=84-	=84-	=84-
2r	.	2r	.	2a\	ſunt
2d\	et	2a\	et	2r	.
=85-	=85-	=85-	=85-	=85-	=85-
1A/	hi	1a\	hi	1r	.
=86-	=86-	=86-	=86-	=86-	=86-
2d\	tres	2a\	tres,	2r	.
2r	.	2r	.	1dd\	v-
=87-	=87-	=87-	=87-	=87-	=87-
1r	.	1r	.	.	.
!	!	!	!	!LO:TX:t=P:problem:# below	!
!	!	!	!	!LO:SIC:v:t=custos dd	!
.	.	.	.	2cc#X\	-num
=88-	=88-	=88-	=88-	=88-	=88-
!	!	!	!	!LO:LB:g=original	!
2r	.	2r	.	2dd,<\	sunt
2c/	et	1g\	et	2g/	et
=89-	=89-	=89-	=89-	=89-	=89-
4g\	hi	.	.	1b-\	hi
!LO:SIC:v:t=custos e	!	!	!	!	!
4f\	.	.	.	.	.
!LO:PB:g=original	!	!	!	!	!
4e\	.	2g/	hi	.	.
4d\	.	.	.	.	.
=90-	=90-	=90-	=90-	=90-	=90-
2c/	tres	0cc\	tres	2g/	tres
2f\	V-	.	.	2cc\	v-
=91-	=91-	=91-	=91-	=91-	=91-
0c\	-num	.	.	2.cc\	-num
.	.	.	.	8b-\L	.
.	.	.	.	8a\J	.
=92-	=92-	=92-	=92-	=92-	=92-
.	.	2g/	u-	1g\	.
.	.	2cc\	-num	.	.
=93-	=93-	=93-	=93-	=93-	=93-
1f\;l	sunt-	1cc\;l	ſunt,	1a\;l	sunt-
==	==	==	==	==	==
*-	*-	*-	*-	*-	*-
!!!system-decoration: [(s1,s2)][(s3)]
!!!ENC:Anastazja Marusiak
!!!END:2021-10-08
!!!RDF**kern: l = terminal long
!!!RDF**kern: < = below
!!!EED: Andrzej Borzym
!!!EST: 2021-10-20
